X: 4
T: The Fairy
R: slip jig
M: 9/8
L: 1/8
K: Dmix
|:ABG Add Add|ABG Add fAg|
A2G Add Add|cAG ABG FED:|
|: abg add add| abg add bag||
|1 abg add add | cAG ABG FED|
|2 a2a baf gag |fed cAG FED ||


Tune 2743	Setting 2743

